X:1345
T:Belfast
M:C|
L:1/8
K:D Major
ag|(3faf df AdFA|DFAd f2ef|gbec dfAF|GABG E2ag|!
(3faf df AdFA|DFAd f2ef|gged cABc|d2f2 d2:|!
(3DEF|GFGA Bcde|fgfe dcdB|A2f2 fef2|G2e2 ede2|!
GFGA Bcde|fgfe dcdB|Afed cABc|d2f2 d2:|!
ag|(3fgf (3efe (3ded (3cdc|(3BcB (3ABA G2ba|(3gag (3fgf (3efe (3ded|(3cdc (3BcB A2ag|!
(3fgf (3efe (3ded (3cdc|(3BcB (3ABA (3GAG (3FGF|Eged cABc|d2f2 d2:|!


